static/logos/playstation-glyph-color.svg

<svg width="32" height="32" viewBox="0 0 32 32" fill="none" xmlns="http://www.w3.org/2000/svg">
<path d="M0.69116 21.9548C-0.506476 22.7935 -0.284724 24.2384 2.44769 25.1419C5.18011 26.0455 8.35603 26.2323 11.1505 25.729C11.0707 25.729 11.3102 25.729 11.1505 25.729V22.8774L8.43588 23.8C7.39792 24.1355 6.35997 24.2194 5.32202 23.9677C4.5236 23.7161 4.68328 23.2129 5.64139 22.7935L11.1505 20.7806V17.6774L3.48565 20.4452C2.52754 20.7806 1.56943 21.2839 0.69116 21.9548ZM19.2146 9.37419V17.5097C22.4881 19.1871 25.0431 17.5097 25.0431 13.1484C25.0431 8.70323 23.5261 6.69032 19.1348 5.09677C16.8193 4.25806 14.4241 3.50323 12.0288 3V27.2387L17.6178 29V8.61935C17.6178 7.69677 17.6178 7.02581 18.2565 7.27742C19.1348 7.52903 19.2146 8.45161 19.2146 9.37419ZM29.5941 20.0258C27.2787 19.1871 24.8036 18.8516 22.4083 19.1032C21.0779 19.1906 19.8294 19.5869 18.5759 20.0258V23.2968L23.7656 21.2839C24.8036 20.9484 25.8415 20.8645 26.8795 21.1161C27.6779 21.3677 27.5182 21.871 26.5601 22.2903L18.5759 25.3935V28.5806L29.5941 24.3032C30.3925 23.9677 31.1111 23.5484 31.7499 22.8774C32.3088 22.0387 32.0692 20.8645 29.5941 20.0258Z" fill="#0070D1"/>
</svg>

<svg xmlns="http://www.w3.org/2000/svg" width="64" height="64" fill="none" viewBox="0 0 32 32"><path fill="#0070D1" d="M.691 21.955c-1.197.839-.976 2.283 1.757 3.187s5.908 1.09 8.703.587c-.08 0 .16 0 0 0v-2.852l-2.715.923c-1.038.335-2.076.42-3.114.168-.798-.252-.639-.755.32-1.174l5.508-2.013v-3.104l-7.664 2.768c-.958.336-1.917.839-2.795 1.51m18.524-12.58v8.135c3.273 1.677 5.828 0 5.828-4.362 0-4.445-1.517-6.458-5.908-8.051-2.316-.839-4.71-1.594-7.106-2.097v24.239L17.618 29V8.62c0-.923 0-1.594.639-1.343.878.252.958 1.175.958 2.097m10.38 10.65c-2.316-.838-4.791-1.173-7.187-.922-1.33.088-2.579.484-3.832.923v3.27l5.19-2.012c1.038-.336 2.076-.42 3.114-.168.798.252.638.755-.32 1.174l-7.984 3.104v3.187l11.018-4.278c.798-.335 1.517-.755 2.156-1.426.559-.838.32-2.012-2.156-2.851"/></svg>
